src/pos-icons/check-box-multiple-outline.svg

<svg height="24" viewBox="0 0 24 24" width="24" xmlns="http://www.w3.org/2000/svg"><path d="m20 2h-12a2 2 0 0 0 -2 2v12a2 2 0 0 0 2 2h12a2 2 0 0 0 2-2v-12a2 2 0 0 0 -2-2m0 14h-12v-12h12zm-4 4v2h-12a2 2 0 0 1 -2-2v-13h2v13zm2.53-11.94-1.06-1.06-4.88 4.88-2.12-2.12-1.06 1.06 3.18 3.18z"/></svg>

<?xml version="1.0" encoding="UTF-8"?><!DOCTYPE svg PUBLIC "-//W3C//DTD SVG 1.1//EN" "http://www.w3.org/Graphics/SVG/1.1/DTD/svg11.dtd"><svg xmlns="http://www.w3.org/2000/svg" xmlns:xlink="http://www.w3.org/1999/xlink" version="1.1" id="mdi-check-box-multiple-outline" width="24" height="24" viewBox="0 0 24 24"><path d="M20,2H8A2,2 0 0,0 6,4V16A2,2 0 0,0 8,18H20A2,2 0 0,0 22,16V4A2,2 0 0,0 20,2M20,16H8V4H20V16M16,20V22H4A2,2 0 0,1 2,20V7H4V20H16M18.53,8.06L17.47,7L12.59,11.88L10.47,9.76L9.41,10.82L12.59,14L18.53,8.06Z" /></svg>
